X:1
T:Title
%%score { ( 1 3 ) | 2 }
L:1/8
Q:1/4=100
M:4/4
K:D
V:1 treble nm="Grand Piano"
V:3 treble 
V:2 bass 
V:1
 [Fd]2 [Ac][GB] [FA]2 [DF]2 | [FA]2 [EG][CE] F4 | G2 BB A2 z D | F2 z2 z4 | %4
w: W.~H.~Doane * * * *||||
 [FA]2 [DF][GB] [FA]2 [DF]2 | [FA]2 [EG][CE] [DF]4 | [Fd]2 [Ac][GB] [FA]2 AG | F2 [CE]2 D4 | %8
w: ||||
 B3 A BdcB | [FA]2 [DF]2 [CE]4 | [EG]2 [^DF]2 [EG]4 | [CA]2 [EG]2 [DF]4 | %12
w: ||||
 [FA]2 [DF][EG] [GB] [FA]3 | [FA]2 [DF][EG] [GB] [FA]3 | [Fd]2 [DAc][DGB] [DFA]2 [A,DA][B,EG] | %15
w: |||
 [DF]2[K:bass] [G,CE]2 [F,D]4 |] %16
w: |
V:2
 [D,A,]2 [D,D][D,D] [D,D]2 [D,A,]2 | [A,,A,]2 [A,,A,][A,,A,] [D,A,D]4 | %2
 [D,B,D]2 [D,G,D][D,G,D] [D,F,D]2 .[D,A,D]2 | .[E,D]2 [E,^G,D]2 [A,,A,]4 | %4
 [D,A,]2 [D,A,][D,D] [D,D]2 [D,A,]2 | [A,,A,]2 [A,,A,][A,,A,] [D,A,]4 | %6
 [D,A,]2 [F,D][G,D] [D,D]2 [F,A,D][G,B,E] | [A,D]2 [A,,G,]2 [D,F,]4 | %8
 [G,D]3 [G,C] [G,D][G,B,D][G,CG][G,DG] | [D,D]2 [D,A,]2 [A,,A,]4 | [A,,A,]2 [A,,A,]2 [A,,A,]4 | %11
 [A,,E,]2 [C,A,]2 [D,A,]4 | [D,A,]2 [D,A,][D,A,] [D,D] [D,D]3 | [D,A,]2 [D,A,][D,A,] [D,D] [D,D]3 | %14
 [D,A,]2 F,G, D,2 F,G, | A,2 A,,2 D,4 |] %16
V:3
 x8 | x8 | z4 z2 F2 | z B, B2 [CA]4 | x8 | x8 | x8 | x8 | x8 | x8 | x8 | x8 | x8 | x8 | x8 | %15
 x2[K:bass] x6 |] %16

